X: 114104
T: LADY HARRIET HOPE
Q: "Reel."
R:  Reel.
%R: reel
B: James Kerr "Merry Melodies" v.1 p.14 s.1 #4
Z: 2017 John Chambers <jc:trillian.mit.edu>
M: C
L: 1/8
K: F
A |\
FAcf dcBA | f2 (3(agf) gGGA |\
FAcf dcBA | BGcA F/F/F F :|\
uc |\
fcfa (3(fga) (gf) | ecgc acgc |
fcfg (3(fga) (gf) | cfeg f/f/f (fc) |\
fcfa (3(fga) (gf) | gfga baga |\
fdcB Acfd | cABG F/F/F F |]\
{F}"_Fine."F4 ||

% %newpage
%%sep 1 1 500
%%sep 1 1 500
%%center Set. 23rd.

%%sep 1 1 500
%%sep 1 1 500

